apps/scalable/paint/paint.svg

<svg xmlns="http://www.w3.org/2000/svg" style="isolation:isolate" width="256" height="256"><defs><filter id="a" width="270.648" height="254.338" x="-7.32" y="2.95" filterUnits="userSpaceOnUse"><feGaussianBlur xmlns="http://www.w3.org/2000/svg" in="SourceGraphic" stdDeviation="4.294"/><feOffset xmlns="http://www.w3.org/2000/svg" dy="4" result="pf_100_offsetBlur"/><feFlood xmlns="http://www.w3.org/2000/svg" flood-opacity=".4"/><feComposite xmlns="http://www.w3.org/2000/svg" in2="pf_100_offsetBlur" operator="in" result="pf_100_dropShadow"/><feBlend xmlns="http://www.w3.org/2000/svg" in="SourceGraphic" in2="pf_100_dropShadow"/></filter></defs><g filter="url(#a)"><linearGradient id="b" x1=".671" x2=".329" y1="-.003" y2=".936" gradientTransform="matrix(244.648 0 0 228.338 5.676 11.947)" gradientUnits="userSpaceOnUse"><stop offset="0%" stop-color="#9b33ae"/><stop offset="100%" stop-color="#e97cc8"/></linearGradient><path fill="url(#b)" d="M165.685 11.947c74.055 0 84.639 10.557 84.639 84.544v59.251c0 73.986-10.584 84.543-84.639 84.543h-75.37c-74.055 0-84.639-10.557-84.639-84.543V96.491c0-73.987 10.584-84.544 84.639-84.544h75.37z"/></g><path fill="#FFF" d="M5.676 126.116v29.626c0 73.986 10.584 84.543 84.639 84.543h75.37c74.055 0 84.639-10.557 84.639-84.543v-29.626H5.676z" opacity=".1"/><path fill="#FFF" d="M128 11.947v228.338h37.685c74.055 0 84.639-10.557 84.639-84.543V96.491c0-73.987-10.584-84.544-84.639-84.544H128z" opacity=".2"/><path fill="#FFF" d="M226.499 22.25L29.956 231.898c12.579 6.593 31.794 8.25 60.948 8.25h74.647c73.345 0 83.828-10.456 83.828-83.733V97.733c0-44.15-3.813-65.489-22.88-75.483z" opacity=".2"/><defs><filter id="c" width="91.826" height="82.736" x="159.31" y="11.09" filterUnits="userSpaceOnUse"><feGaussianBlur xmlns="http://www.w3.org/2000/svg" stdDeviation=".423"/></filter></defs><path d="M160.29 12.078c.296 70.553 11.485 80.767 83.814 80.767h6.043l-20.288-63.267-69.569-17.5z" opacity=".1" filter="url(#c)"/><defs><filter id="d" width="109.54" height="100.45" x="150.45" y="6.28" filterUnits="userSpaceOnUse"><feGaussianBlur xmlns="http://www.w3.org/2000/svg" stdDeviation="4.225"/></filter></defs><g opacity=".4" filter="url(#d)"><linearGradient id="e" x1=".011" x2=".551" y1=".4" y2=".939" gradientTransform="matrix(89.858 0 0 80.767 160.29 16.116)" gradientUnits="userSpaceOnUse"><stop offset="0%" stop-opacity="0"/><stop offset="48.958%"/><stop offset="100%" stop-opacity="0"/></linearGradient><path fill="url(#e)" d="M160.29 16.116c.296 70.554 11.485 80.767 83.814 80.767h6.043l-25.788-63.805-64.069-16.962z"/></g><path fill="#5D5D5D" d="M250.147 92.845c-.296-70.554-11.485-80.767-83.814-80.767h-6.043l89.857 80.767z"/><g opacity=".4"><linearGradient id="f" x1=".517" x2=".517" y2="1"><stop offset="0%" stop-color="#fff"/><stop offset="12.5%" stop-opacity=".098" stop-color="#fff"/><stop offset="92.5%" stop-opacity=".098"/><stop offset="100%" stop-opacity=".498"/></linearGradient><path fill="none" stroke="url(#f)" stroke-linecap="round" stroke-linejoin="round" stroke-width="4.077" d="M165.685 11.947c74.055 0 84.639 10.557 84.639 84.544v59.251c0 73.986-10.584 84.543-84.639 84.543h-75.37c-74.055 0-84.639-10.557-84.639-84.543V96.491c0-73.987 10.584-84.544 84.639-84.544h75.37z" vector-effect="non-scaling-stroke"/></g><path fill="#FAF8F6" d="M160.29 12.078c.296 70.553 11.485 80.767 83.814 80.767h6.043L160.29 12.078z"/></svg>

<svg xmlns="http://www.w3.org/2000/svg" style="isolation:isolate" width="256" height="256" viewBox="0 0 256 256">
 <defs>
  <filter id="Q52MIPgFJM3uX1ezgKKFOc4GW1MdZCH1" width="270.648" height="254.338" x="-7.32" y="2.95" filterUnits="userSpaceOnUse">
   <feGaussianBlur xmlns="http://www.w3.org/2000/svg" in="SourceGraphic" stdDeviation="4.294"/>
   <feOffset xmlns="http://www.w3.org/2000/svg" dx="0" dy="4" result="pf_100_offsetBlur"/>
   <feFlood xmlns="http://www.w3.org/2000/svg" flood-opacity=".4"/>
   <feComposite xmlns="http://www.w3.org/2000/svg" in2="pf_100_offsetBlur" operator="in" result="pf_100_dropShadow"/>
   <feBlend xmlns="http://www.w3.org/2000/svg" in="SourceGraphic" in2="pf_100_dropShadow" mode="normal"/>
  </filter>
 </defs>
 <g filter="url(#Q52MIPgFJM3uX1ezgKKFOc4GW1MdZCH1)">
  <linearGradient id="_lgradient_181" x1=".671" x2=".329" y1="-.003" y2=".936" gradientTransform="matrix(244.648,0,0,228.338,5.676,11.947)" gradientUnits="userSpaceOnUse">
   <stop offset="0%" style="stop-color:rgb(155,51,174)"/>
   <stop offset="100%" style="stop-color:rgb(233,124,200)"/>
  </linearGradient>
  <path fill="url(#_lgradient_181)" d="M 165.685 11.947 C 239.74 11.947 250.324 22.504 250.324 96.491 L 250.324 155.742 C 250.324 229.728 239.74 240.285 165.685 240.285 L 90.315 240.285 C 16.26 240.285 5.676 229.728 5.676 155.742 L 5.676 96.491 C 5.676 22.504 16.26 11.947 90.315 11.947 L 165.685 11.947 Z"/>
 </g>
 <g opacity=".1">
  <path fill="#FFFFFF" d="M 5.676 126.116 L 5.676 155.742 C 5.676 229.728 16.26 240.285 90.315 240.285 L 165.685 240.285 C 239.74 240.285 250.324 229.728 250.324 155.742 L 250.324 126.116 L 5.676 126.116 Z"/>
 </g>
 <g opacity=".2">
  <path fill="#FFFFFF" d="M 128 11.947 L 128 240.285 L 165.685 240.285 C 239.74 240.285 250.324 229.728 250.324 155.742 L 250.324 96.491 C 250.324 22.504 239.74 11.947 165.685 11.947 L 128 11.947 Z"/>
 </g>
 <g opacity=".2">
  <path fill="#FFFFFF" d="M 226.499 22.25 L 29.956 231.898 C 42.535 238.491 61.75 240.148 90.904 240.148 L 165.551 240.148 C 238.896 240.148 249.379 229.692 249.379 156.415 L 249.379 97.733 C 249.379 53.583 245.566 32.244 226.499 22.25 Z"/>
 </g>
 <defs>
  <filter id="xX7CUICdtpxeMjam9QgMtS2a7UrnwyK8" width="91.826" height="82.736" x="159.31" y="11.09" filterUnits="userSpaceOnUse">
   <feGaussianBlur xmlns="http://www.w3.org/2000/svg" stdDeviation=".423"/>
  </filter>
 </defs>
 <g opacity=".1" filter="url(#xX7CUICdtpxeMjam9QgMtS2a7UrnwyK8)">
  <path d="M 160.29 12.078 C 160.586 82.631 171.775 92.845 244.104 92.845 L 250.147 92.845 L 229.859 29.578 L 160.29 12.078 Z"/>
 </g>
 <defs>
  <filter id="ZivM5kKGLNQP8M5VIOaHgzki4j90A06p" width="109.54" height="100.45" x="150.45" y="6.28" filterUnits="userSpaceOnUse">
   <feGaussianBlur xmlns="http://www.w3.org/2000/svg" stdDeviation="4.225"/>
  </filter>
 </defs>
 <g opacity=".4" filter="url(#ZivM5kKGLNQP8M5VIOaHgzki4j90A06p)">
  <linearGradient id="_lgradient_182" x1=".011" x2=".551" y1=".4" y2=".939" gradientTransform="matrix(89.858,0,0,80.767,160.29,16.116)" gradientUnits="userSpaceOnUse">
   <stop offset="0%" stop-opacity="0" style="stop-color:rgb(0,0,0)"/>
   <stop offset="48.958%" style="stop-color:rgb(0,0,0)"/>
   <stop offset="100%" stop-opacity="0" style="stop-color:rgb(0,0,0)"/>
  </linearGradient>
  <path fill="url(#_lgradient_182)" d="M 160.29 16.116 C 160.586 86.67 171.775 96.883 244.104 96.883 L 250.147 96.883 L 224.359 33.078 L 160.29 16.116 Z"/>
 </g>
 <path fill="#5D5D5D" d="M 250.147 92.845 C 249.851 22.291 238.662 12.078 166.333 12.078 L 160.29 12.078 L 250.147 92.845 Z"/>
 <g opacity=".4">
  <linearGradient id="_lgradient_183" x1=".517" x2=".517" y1="0" y2="1">
   <stop offset="0%" style="stop-color:rgb(255,255,255)"/>
   <stop offset="12.5%" stop-opacity=".098" style="stop-color:rgb(255,255,255)"/>
   <stop offset="92.5%" stop-opacity=".098" style="stop-color:rgb(0,0,0)"/>
   <stop offset="100%" stop-opacity=".498" style="stop-color:rgb(0,0,0)"/>
  </linearGradient>
  <path fill="none" stroke="url(#_lgradient_183)" stroke-linecap="round" stroke-linejoin="round" stroke-width="4.077" d="M 165.685 11.947 C 239.74 11.947 250.324 22.504 250.324 96.491 L 250.324 155.742 C 250.324 229.728 239.74 240.285 165.685 240.285 L 90.315 240.285 C 16.26 240.285 5.676 229.728 5.676 155.742 L 5.676 96.491 C 5.676 22.504 16.26 11.947 90.315 11.947 L 165.685 11.947 Z" vector-effect="non-scaling-stroke"/>
 </g>
 <path fill="#FAF8F6" d="M 160.29 12.078 C 160.586 82.631 171.775 92.845 244.104 92.845 L 250.147 92.845 L 160.29 12.078 Z"/>
</svg>
